_includes/icons/ios-book.svg

<svg fill="#666" height="50" viewBox="0 0 50 50" width="50" xmlns="http://www.w3.org/2000/svg"><path d="m12 2c-3.300781 0-6 2.699219-6 6v34.417969c0 3.175781 2.832031 5.582031 6 5.582031h32v-2h-32c-2.160156 0-4-1.621094-4-3.582031 0-1.960938 1.800781-3.417969 4-3.417969h32v-37zm0 2h30v33h-30c-1.492187 0-2.90625.539063-4 1.417969v-30.417969c0-2.21875 1.78125-4 4-4zm3 5c-1.09375 0-2 .90625-2 2v4c0 1.09375.90625 2 2 2h21c1.09375 0 2-.90625 2-2v-4c0-1.09375-.90625-2-2-2zm0 2h21v4h-21z"/></svg>

<svg xmlns="http://www.w3.org/2000/svg" viewBox="0 0 50 50" width="50" height="50" fill="#666"><path d="M 12 2 C 8.699219 2 6 4.699219 6 8 L 6 42.417969 C 6 45.59375 8.832031 48 12 48 L 44 48 L 44 46 L 12 46 C 9.839844 46 8 44.378906 8 42.417969 C 8 40.457031 9.800781 39 12 39 L 44 39 L 44 2 Z M 12 4 L 42 4 L 42 37 L 12 37 C 10.507813 37 9.09375 37.539063 8 38.417969 L 8 8 C 8 5.78125 9.78125 4 12 4 Z M 15 9 C 13.90625 9 13 9.90625 13 11 L 13 15 C 13 16.09375 13.90625 17 15 17 L 36 17 C 37.09375 17 38 16.09375 38 15 L 38 11 C 38 9.90625 37.09375 9 36 9 Z M 15 11 L 36 11 L 36 15 L 15 15 Z"/></svg>
